X: 21524
T: Kilbrandon
R: slip jig
M: 9/8
K: Amixolydian
|:A3 d2 e A2 e|A3 d2 e g2 a|A3 d2 e A2 e|d3 B2 A GAB:|
g3 edB d2 e|ABB B2 A GAB|g3 edB d2 e|gaa a2 b age|
g3 edB d2 e|ABB B2 A GAB|d3 e3 dBA|G3 G2 A BdB||

